-----BEGIN PGP SIGNATURE-----
Version: BCPG v1.77.00

iQJPBAABCAA5FiEEtksVY3kVTltsF20NYVdQO/zRCaQFAmp0U9IbFIAAAAAABAAO
bWFudTIsMi41KzEuMTIsMiwyAAoJEGFXUDv80QmkVukQAIt9NeQwxMUq6CKCDqkT
msbs7zGmaK8W1jnfZAzB3RX8Zi7J4Nk13/e5hhIatwtq22v0dh/Hn7dr8X7D34/1
Dyv74pcngE9sdSZXvTc1xm8DpDTkYXsBw5bMWhnU7z+cuPWHt/tsUshSjwE3gmT3
aiD61ZIXyXkySZH/DaDlDiGLqyX8pM/x/SNwLcw8dKOs6sRaUzxtug5e7Ep6DgNR
pwSMUZoDjF4EBkhZs8Z1t4+AXxBa44BheRyYwdcmd7dEngia2ZAfQ8cipNS/Y8Mu
A5mK7EFLMbWDeSKIsLQkqrOtn/Vu+rPe3gPVKD+Ps6uTOYV5lXbOzVTOX1X0wliy
bBDFETZJ+z1knvmAHZ+2eIec0MTpS3NV4JPZ4iUhfTIGebJAkw2quc0SOu/+/jcS
Z9IlzcpURYN4/ekMXQZ3//M6D2iPW+Vsp7jMwolUsbnF7xdRsSI+ARs5bcFavYra
rSsVdPOoqvyEazkxtit9I5Hp1Me+P0pej4CdlhzheXSQnjRRcVGEPZ6dvxrldjCV
VXNb0x8q5G088BcswJlx8d6SRTXkrWsTG23GwDgewFwx1OkPfbws3qAXPmIfNpAo
r1q2fPUG6taJfCHy3epuOGLQH1CUTSSMf0/OZmDOfTSfLUjjGQXBY6adsQF4q+Yt
ZPAENJ5x6/jdxVeT4HkxwA5E
=mstO
-----END PGP SIGNATURE-----
