-----BEGIN PGP SIGNATURE-----

iQJgBAABCABKFiEEtksVY3kVTltsF20NYVdQO/zRCaQFAmpclMAbFIAAAAAABAAO
bWFudTIsMi41KzEuMTIsMiwyEBxkZXZAdGFta3VuZ3oubWUACgkQYVdQO/zRCaQO
2Q/+NsJA5yOMktWJgxEipkWRHMtQGetFMlX3Sm0lAvQrTqSdfht3AvpOlNwNx6ia
lA15IxJ3ZysJf7z0V3WeuKEZDAhZZ9d7/yq5Z93qn0xARjaZih/lgKbZMsYEm80x
aqZYgaORnezRJNsrmX6m9XddL7//Le4wAeFfFRBJGkkgHN1dnoMG/oDnbJ/DqESB
ICff56VpbzZq+QbIClYO0ZV8Iulem7BRITP8lIrJdshN28SDO/J8lspgR2YZUduS
OiQUNcuqKtI+NZLSp9Bbt8r8ER1NCfAKVayNc/uv+JXdurKoDEqWa7iZ+wAjmHT4
nDBbsgtRqT0pBd+wO5AdEJnxqZKi0bHXkaVPH4SD1GvqPBDGMyX/S7V5MlYCqYb6
cMV6DUhlxWGboVVf9bkpZ+lGGusI5bVN4FgCKDTQxw0FH4Nzp2yf796/LVNs3rAx
2vQeaSJvM4kxe1jTnXjkL8jaBYlA8HGUyvFpIO2Og2ZVU7V2q0vlV8PHhQzCOPLx
cLZub+YqYI4BYDXpmIiA85uuN9cyumthFzzX4vEWB3Rurz08T0I35/Yu0CYbAdQy
4h7iXd/ywQwdLKHHGSwMldTR2S48ptJJnoFTNjVLotjqdDLgdF269boYSBoV0Qcz
JZMl5R2DX9fVA2LvUkUOWIZUDij0kqYupBmIOWvtl0RMfjM=
=gEyY
-----END PGP SIGNATURE-----
