-----BEGIN PGP SIGNATURE-----
Version: BCPG v1.77.00

iQJPBAABCAA5FiEEtksVY3kVTltsF20NYVdQO/zRCaQFAmp0QLQbFIAAAAAABAAO
bWFudTIsMi41KzEuMTIsMiwyAAoJEGFXUDv80Qmkl5EP/AoAbyN43sV94xJuK/q4
lCR+xGSmpTeNZozUHBxbVjvu0VHCqE/cXYGqQSCtO2P8IPsqhXVAoOGhFsHFeKjq
oa0wq3hJeH2+iaqfXSeXpMyAvKNh5aeouMskx6qFqeEsW+JCIu6UZJ/PebyD+L82
81pnLumStRq1HRrU/BnVNEVOq0dbnf++wb6bSNYAj0cUGiOjiu5OeQHZ8MuRQ0MX
N96OqZv7iA+1dFPE7HwJGkAwkbDc/iopR1YWsQqlhBB4bu/5x+BEkpmaT2Jfd8NL
G3S0MjqprQSl3V0vHLiftZZ9tKA8ZPySUS9wWxmajF7hAGbJF4upRP69P6QYFwNh
JqDUUsCza0YzoB+oOYfeypVbsOp770xqKDBbRVQCkmGWm2lGFSECjTtha6zFuN7h
NQ5YyIBp1jr3xsDwmIhgi+T3zQQZuowg08xCLEp6pdTzTeMTKtmvo43uvjoty9ES
HJZajdYkHthcy995i8U484daATTuNVvMXwBAKBwKIeC2+yrt8/2p0IhCCc7gculQ
kFJC7WBweI5v+yzIzrxRU/Hy8jMWC7kIRKZqaX8g1h+9/3nIvNLn9xp1E5M/qliO
9fL7va3hDcy2Npf7hf0JExbqB+NrEuqHdB4xMv8yoIBQmYs9jbEYYs3hxMcCGii8
Wd5RYHYfsHgJm/EUPsKB941H
=mvHT
-----END PGP SIGNATURE-----
