-----BEGIN PGP SIGNATURE-----

iQJgBAABCABKFiEEtksVY3kVTltsF20NYVdQO/zRCaQFAmpclMcbFIAAAAAABAAO
bWFudTIsMi41KzEuMTIsMiwyEBxkZXZAdGFta3VuZ3oubWUACgkQYVdQO/zRCaTQ
5A/9ESEpJeNfA24mnxQyniWGstE1S+8/mNWIN/um+NsnMa2T8IhweU6wI+VIYt/+
XHzgp6RLD5VcH45qEAG43/MgOT0eimR3qpAUGEKCrPNhHR1SKfwNxARwhtvc/GlH
SeoumGm1tD9YPI0nEMc1ykjVq9oRjPxenHoAFZj24VPhg+Uan8a1/7WJX8s+2yVg
dZXpRIDc3vRHts/158z6B+bfB1hfKRXtcitNr9hi8mwOPxDSzJUy0dffPLzyDJB9
y2qtqe9P/GXXshtTU9SnHylSUc1GpuVYnvLXA227d8emeZwBy7ilYiXoXI9tbgmJ
Wx6cp2mbXXp8OiGdG3VlCcT6CCLgJkUzuz6HUa6MzUYRu7q2Iu7LOXPmUsIaSuWI
DUh6jxg3h4A4dlBZo7IZgO6qDxU6ADDvTk3wMspz1BA9jO54iXjh7J65EG5zAqyq
GKc7H8hjJIKtomgrtzemo28JHVGcFLrQ7hGa5cmk/OphNxy3hQuXqgl2PuC/NYvm
tXn+7c3UvGumhDeyOvwReXBghLMJeGoi+NR3sbgJWkdlqthVPr98zdAzCfrgkPCT
vEoF7cNtW4lKW5OKm+5RzuDJxkwZqkBEaZfTm42iV8o4pSveB+Sz2nF6HmYztXgC
Z6xrIb1unhH1nSJoN9v+lOqdQ1hPVozbo+vJIFSB06uWW/w=
=HvKS
-----END PGP SIGNATURE-----
