-----BEGIN PGP SIGNATURE-----

iQJgBAABCABKFiEEtksVY3kVTltsF20NYVdQO/zRCaQFAmpclOwbFIAAAAAABAAO
bWFudTIsMi41KzEuMTIsMiwyEBxkZXZAdGFta3VuZ3oubWUACgkQYVdQO/zRCaQm
EhAAkAwU7YRUIpt6DHDXfEnafkkcp05OdGjWwW0x+ZA4j1eyO+p8Ahjrg4K9fSip
vqkaqf8+TAGWGqGHfxYr6cOhhOQ0lXea/V3NON+FdBrY36ukZfxwk0ntuoP6PyKg
tJSSTqNbi4SURiGtvMh6iZ31n5GnZMgqFxbxWCt6HXieCny++KNpjdaSVp0RbSqW
xfk5UjQznSmsVyGRf8c3HZN2Sc1wriLznj5rjHtL897ojbzUmqRIjji9SzjwUVUh
cLN4S3abHHhMEBQIN/jYCzJEOuuuWuubzntEjOF2+oQpi7S2uuFfmKpBCkymhspk
2jxQRSY1f+TbayHX0Kb5JTWdfINHhCC5Slh/gqxGaP5Yw3SsUnbTqxt9W87CSrWw
WeS7jjsLK5lJwIj3SU6cUf4rmn104gqzUGHEpx2A/V2XdalKOU6BOtJba7k9qrc9
dUOEiV4s1rBnMHnQQFUcalEkZO8eQ18hEuy8ovQ8R2i6A6B6LPO9YpCkaak2Hs2F
Zq9ysmFnR8Y03u7EM7qL1ehps45/eV4fU5XQRisHi2Rj0BKufeolMcibHzIQKISI
a2nz7ld5cduYcTtpIMyqUMw+9jm+UYv93l3pWUiMglIsRbr8Fs2zp3f0lXPMv3gM
ouTbmnPs6vENHPyJ+DIsLrDgAjPgo9rEaU9sVUsbP9g5Ydk=
=c62h
-----END PGP SIGNATURE-----
