-----BEGIN PGP SIGNATURE-----

iQJgBAABCABKFiEEtksVY3kVTltsF20NYVdQO/zRCaQFAmpclN4bFIAAAAAABAAO
bWFudTIsMi41KzEuMTIsMiwyEBxkZXZAdGFta3VuZ3oubWUACgkQYVdQO/zRCaSY
9g/+JcntXpmwgE3MBuntI8gUbAGG3LAaUti7+NUkg1b47jposaQAKsgYq89UtSea
oLsVIgnxHCrJGQKo8XNiKwyvZfj5eAB/nqMsE5XQe6jQ9tewfhkxIJRdiE640YlQ
LC608a+/vX+ZzOEGX+8Rix729qvjPMFvWjhorukWjRw0dQWaLgKwUQH34kv5l8ud
IMDZIlD7DkFOV3aIcfEEWrNnnwROezM5Dv03tCgGXSH4vTDRDhA1B9hcgVBruxtU
wAvDiH8HpuD8geoBz96TZxzLdnhyU6BFs3xFPKvzbncTrWaxIm7AwZXvnPmrsLxJ
O7teMJelb6t2UA6iixZGmBS5M3SwNU6LY2Qz6WEWFleESxyLzKjt/VELi3kDLLgd
PuZ7xyiwXMqt3IvwBKplTj+6jwXPpj1R1UloJPqAzOMLvUGjgC8X/1Xxw11790uy
LTME5MQkAmCbhWfOrrDh3ZvOsHJ4i27mJwujPfGzMdgBfvEdn65dIxXZrMdklpKl
xJwXB2sw4GdovkXSqzJGu8T8AdtSxLlOthWIhdTf5hr9CCLQMa5OhLBYpj/1FcRS
GbR/LM79lLpYEuZfLZxFPOYec40/pex34tBlGB1onteDPN30y1wbMerpg0MH+Gqx
F92Q9tIG54UG4j4PXLGCRwYIrve4QNO43crmsi2VqpCknHA=
=NjJr
-----END PGP SIGNATURE-----
