-----BEGIN PGP SIGNATURE-----
Version: BCPG v@RELEASE_NAME@

iQJPBAABCAA5FiEEtksVY3kVTltsF20NYVdQO/zRCaQFAmpwCQgbFIAAAAAABAAO
bWFudTIsMi41KzEuMTIsMiwyAAoJEGFXUDv80QmkbRwP/iMLbjKEb4EKzJ6is+5R
mrAuhXGaDkz+M1b2miacJS8/mE2+399crZnCuU7R222+H/LMerl3Nkd/+LKZyb4C
Uh491AiVPRtArjtgMgmSzUGZdE+z/+Vu3/912jGjACHkYQ61M3NTfqk9FLWnWUQA
pjLg1SQBaNquKCT5dxZEq/XDEo8SVF1PEgiwTwi5BxmbYzz/UKeHBuNcF0RMxk4a
/Z6mnCdyniVxNYqEu8G47dmikIKRyhCxPM+YHZXeDNeT4xpjk5OF7vH842kbYxhb
eQa4KLV9qWxOiDUlB0N/SqiSLrg+xLzj0jcGhRmTbNEMRDDc04j7DKPRCOPTcAs5
rIidp36jmk6B/vfyS12MkHIDOXOn/g9b8ZUi+8WqgoSU/58SjaFg5MzrX2DyOd4q
Uejvz6GM9DuuuZqwjOKKlcMenTEf0jcQ5vpWFOGwVGhqILTc+t80QErMqiR3K6aG
skXqber5nlD9X8XPkjhQoao8inoOvQxyXf2PbMeLSPM+lzlUaPUQ1GXTiJezGdS3
PeZpgeRWtubmk/drpbOWbZ15N7zBVfMCOXajrkFLmu1i+p35ZygOsyH2iVcJFPt5
LWEaEKNNCm00Kx3h9lJBxVL3ZNXc7xInDMxcqc+wu+8DjswzEvBlKbHl9L+lcmhp
tYt9pZHJSt+kqqgw29SgL4/U
=zkwr
-----END PGP SIGNATURE-----
